build/images/ico/fb-dark.svg

<?xml version="1.0" encoding="UTF-8"?>
<svg width="24px" height="24px" viewBox="0 0 24 24" version="1.1" xmlns="http://www.w3.org/2000/svg" xmlns:xlink="http://www.w3.org/1999/xlink">
    <title>FB--white@1x</title>
    <g id="1.-Design" stroke="none" stroke-width="1" fill="none" fill-rule="evenodd">
        <g id="HP-v.2.1-(schválená)" transform="translate(-1004, -1845)" fill="#0B2A84" fill-rule="nonzero">
            <g id="SOCIÁLNÍ-SÍTĚ" transform="translate(308, 1817)">
                <g id="FB--white" transform="translate(696, 28)">
                    <g id="facebook-circular-logo" transform="translate(-0, 0)">
                        <path d="M12.0000716,0 C5.37268351,0 0,5.39514492 0,12.0502399 C0,18.0190825 4.32626136,22.9622842 9.99869973,23.9195012 L9.99869973,14.5642463 L7.10393243,14.5642463 L7.10393243,11.1976713 L9.99869973,11.1976713 L9.99869973,8.71528938 C9.99869973,5.83501339 11.7505622,4.26543044 14.3096441,4.26543044 C15.5352893,4.26543044 16.5885826,4.35714157 16.8943498,4.39753472 L16.8943498,7.40819003 L15.1194403,7.40905252 C13.7280281,7.40905252 13.4597661,8.07288017 13.4597661,9.04734695 L13.4597661,11.1959463 L16.7798302,11.1959463 L16.3468033,14.5625213 L13.4597661,14.5625213 L13.4597661,24 C19.3970308,23.2743608 24,18.205236 24,12.0467899 C24,5.39514492 18.6273165,0 12.0000716,0 Z" id="Path"></path>
                    </g>
                </g>
            </g>
        </g>
    </g>
</svg>

<svg width="24" height="24" viewBox="0 0 24 24" xmlns="http://www.w3.org/2000/svg"><path d="M12 0C5.373 0 0 5.395 0 12.05c0 5.97 4.326 10.912 9.999 11.87v-9.356H7.104v-3.366h2.895V8.715c0-2.88 1.752-4.45 4.31-4.45 1.226 0 2.28.092 2.585.133v3.01l-1.775.001c-1.391 0-1.66.664-1.66 1.638v2.149h3.32l-.432 3.367H13.46V24C19.397 23.274 24 18.205 24 12.047 24 5.395 18.627 0 12 0z" fill="#0B2A84" fill-rule="nonzero"/></svg>
